src/assets/selectIconsSpells/natura_1.svg

<svg xmlns="http://www.w3.org/2000/svg" viewBox="0 0 512 512"><path d="M0 0h512v512H0z"/><path fill="#fff" d="M160.4 22.21c-10 84.29-9.7 172.19-3.4 257.09 16.1 25.1 33.9 50.3 53.7 77 6.9-29.2 13.8-58.2 20.2-87.5-25.5-82.8-48.1-167.7-70.5-246.59zm119.2 25.14C275.7 173.8 246.3 282 221.1 392c2.6.3 5.1.7 7.6 1.1 8.6 1.4 16.7 3.3 23.9 5.9 16.8-28.7 36-61.5 54.8-97 4.9-86.9 3.5-172.3-27.8-254.65zM395 119.1C377.8 222.7 315.1 329 271 403.8c44.5-26.8 75.7-59.8 103.3-92.1 10.6-12.4 20.7-24.8 30.8-36.7 10-49 9.2-101.4-10.1-155.9zM65.27 133.4c-1.28 63.9 2.37 117.6 17.9 170.7 14.85 19.8 30.83 38.1 47.53 54 13.2 12.6 26.8 23.7 40.5 32.9 5.9-.4 11.8-.7 17.5-.7 9-.1 17.7.2 26 1-67.1-88.5-115.2-159.8-149.43-257.9zm426.63 89.7c-39.5 19.8-67.7 58-103.9 100.3-21.3 24.9-45.5 50.9-76.4 74.3 28.4-7.5 58.1-12.2 87-11.6 1.7 0 3.3.1 5 .2 22.3-36.9 46.2-89 88.3-163.2zm-466.46 24c4.55 48.2 10.86 89.9 24.94 124.7 6.22 15.4 13.88 29.5 23.6 42.4 22.32-9.7 46.32-16.2 69.72-20 .3-.1.6-.1.9-.1-8.9-7.1-17.8-14.8-26.4-23-35.57-34.1-67.93-77.8-92.76-124zm368.46 157c-36.5 0-75.4 8.9-110.6 21.1 6 13.3 7.4 25.9 5.2 36.8-2 9.5-6.6 17.6-12.5 24 8.1 1.2 17.9.5 29-3.2 35.2-11.7 62.5-30.1 95.4-40.9 26.6-8.7 56.9-11.4 95.7-1-26.3-25.9-60.4-36-97.9-36.8zm-199.7 3.8h-5c-13.5.1-27.9 1.3-42.5 3.7-50.37 8.1-102.33 30-130.8 66.8 87.3-22.1 167.3-6.6 207.7 10.6 2.1.9 8.4 1.4 15.4-.4 7-1.8 14.7-5.5 20.7-10.7 6.1-5.1 10.5-11.6 12.1-19.4 1.7-7.9.7-17.5-5.8-29.8-3.3-6.4-17.7-14.6-39.7-18.2-9.6-1.7-20.5-2.6-32.1-2.6z"/></svg>

<?xml version="1.0" encoding="UTF-8" standalone="no"?>
<!DOCTYPE svg PUBLIC "-//W3C//DTD SVG 1.1//EN" "http://www.w3.org/Graphics/SVG/1.1/DTD/svg11.dtd">
<svg width="100%" height="100%" viewBox="0 0 512 512" version="1.1" xmlns="http://www.w3.org/2000/svg" xmlns:xlink="http://www.w3.org/1999/xlink" xml:space="preserve" xmlns:serif="http://www.serif.com/" style="fill-rule:evenodd;clip-rule:evenodd;stroke-linejoin:round;stroke-miterlimit:2;">
    <rect x="0" y="0" width="512" height="512" style="fill-rule:nonzero;"/>
    <path d="M160.4,22.21C150.4,106.5 150.7,194.4 157,279.3C173.1,304.4 190.9,329.6 210.7,356.3C217.6,327.1 224.5,298.1 230.9,268.8C205.4,186 182.8,101.1 160.4,22.21ZM279.6,47.35C275.7,173.8 246.3,282 221.1,392C223.7,392.3 226.2,392.7 228.7,393.1C237.3,394.5 245.4,396.4 252.6,399C269.4,370.3 288.6,337.5 307.4,302C312.3,215.1 310.9,129.7 279.6,47.35ZM395,119.1C377.8,222.7 315.1,329 271,403.8C315.5,377 346.7,344 374.3,311.7C384.9,299.3 395,286.9 405.1,275C415.1,226 414.3,173.6 395,119.1ZM65.27,133.4C63.99,197.3 67.64,251 83.17,304.1C98.02,323.9 114,342.2 130.7,358.1C143.9,370.7 157.5,381.8 171.2,391C177.1,390.6 183,390.3 188.7,390.3C197.7,390.2 206.4,390.5 214.7,391.3C147.6,302.8 99.5,231.5 65.27,133.4ZM491.9,223.1C452.4,242.9 424.2,281.1 388,323.4C366.7,348.3 342.5,374.3 311.6,397.7C340,390.2 369.7,385.5 398.6,386.1C400.3,386.1 401.9,386.2 403.6,386.3C425.9,349.4 449.8,297.3 491.9,223.1ZM25.44,247.1C29.99,295.3 36.3,337 50.38,371.8C56.6,387.2 64.26,401.3 73.98,414.2C96.3,404.5 120.3,398 143.7,394.2C144,394.1 144.3,394.1 144.6,394.1C135.7,387 126.8,379.3 118.2,371.1C82.63,337 50.27,293.3 25.44,247.1ZM393.9,404.1C357.4,404.1 318.5,413 283.3,425.2C289.3,438.5 290.7,451.1 288.5,462C286.5,471.5 281.9,479.6 276,486C284.1,487.2 293.9,486.5 305,482.8C340.2,471.1 367.5,452.7 400.4,441.9C427,433.2 457.3,430.5 496.1,440.9C469.8,415 435.7,404.9 398.2,404.1L393.9,404.1ZM194.2,407.9L189.2,407.9C175.7,408 161.3,409.2 146.7,411.6C96.33,419.7 44.37,441.6 15.9,478.4C103.2,456.3 183.2,471.8 223.6,489C225.7,489.9 232,490.4 239,488.6C246,486.8 253.7,483.1 259.7,477.9C265.8,472.8 270.2,466.3 271.8,458.5C273.5,450.6 272.5,441 266,428.7C262.7,422.3 248.3,414.1 226.3,410.5C216.7,408.8 205.8,407.9 194.2,407.9Z" style="fill:rgb(112,210,88);fill-rule:nonzero;"/>
</svg>
